X: 15071
T: Scots Jenny
C: James Oswald
%R: air, minuet, waltz
B: James Oswald "The Caledonian Pocket Companion" v.1 b.5 p.7 #1 (top 5 staves contunued from p.6)
S: https://ia800501.us.archive.org/18/items/caledonianpocket01rugg/caledonianpocket01rugg_bw.pdf
Z: 2020 John Chambers <jc:trillian.mit.edu>
M: 3/4
L: 1/8
K: G
%%slurgraces 1
%%graceslurs 1
"_Slow"(G>A) |\
{A}B2 d2 (d/e/f) | g3 e (d/e/g) | (ed)(cB)(AG) | E4 (g>a) |\
{g}Tf3 e d2 | {d}e2 g2 D2 | {D}E2 G2 G>A | G4 :: (Bc) |\
d2 (e/g/f/a/) (gf/e/) |
{e}d3 BAB | G4 (A/G/A/B/) |  {c2}d4 (d/e/f) |\
g2 (ba)(gf) | e3 g GA | B2 (gf)(e^d) | e4 (d/e/f) |\
g3 a (g/a/b) | G3 A (B/c/d) |
D4 (D/E/=F) | E4 G>A |\
B2 (ge)(dB) | {A}B2 d2 D2 | {D}E2 G2 G>A | G4 ::\
[M:6/8] "_Brisk"g |\
f>ed efe | d>cB cde | A3 a2g |
Tfef gdB | cde Adc | B3 G2 :: (B/c/) | dBG c2d | efg aeg |\
Tf3 d2c | (B/c/d)G EAB | cAG FDF | G3- G2 :|


